assets/img/braze_icons/search-lg.svg

<svg fill="none" height="24" viewBox="0 0 24 24" width="24" xmlns="http://www.w3.org/2000/svg"><path clip-rule="evenodd" d="m11.5 2c-5.24671 0-9.5 4.25329-9.5 9.5 0 5.2467 4.25329 9.5 9.5 9.5 2.2631 0 4.3415-.7914 5.9733-2.1125l2.8196 2.8196c.3905.3905 1.0237.3905 1.4142 0s.3905-1.0237 0-1.4142l-2.8196-2.8196c1.3211-1.6318 2.1125-3.7102 2.1125-5.9733 0-5.24671-4.2533-9.5-9.5-9.5zm-7.5 9.5c0-4.14214 3.35786-7.5 7.5-7.5 4.1421 0 7.5 3.35786 7.5 7.5 0 4.1421-3.3579 7.5-7.5 7.5-4.14214 0-7.5-3.3579-7.5-7.5z" fill="#801ed7" fill-rule="evenodd"/></svg>

<svg width="24" height="24" viewBox="0 0 24 24" fill="none" xmlns="http://www.w3.org/2000/svg">
<path fill-rule="evenodd" clip-rule="evenodd" d="M11.5 2C6.25329 2 2 6.25329 2 11.5C2 16.7467 6.25329 21 11.5 21C13.7631 21 15.8415 20.2086 17.4733 18.8875L20.2929 21.7071C20.6834 22.0976 21.3166 22.0976 21.7071 21.7071C22.0976 21.3166 22.0976 20.6834 21.7071 20.2929L18.8875 17.4733C20.2086 15.8415 21 13.7631 21 11.5C21 6.25329 16.7467 2 11.5 2ZM4 11.5C4 7.35786 7.35786 4 11.5 4C15.6421 4 19 7.35786 19 11.5C19 15.6421 15.6421 19 11.5 19C7.35786 19 4 15.6421 4 11.5Z" fill="#801ED7"/>
</svg>
